X:2
T:Girl that Broke My Heart, The
R:reel
D:Joe Holmes & Len Graham: After Dawning
D:Kevin Burke: If the Cap Fits.
Z:id:hn-reel-147
M:C|
K:Gmix
dc|BG~G2 EC~C2|DGG^F GABc|defd cAGF|DFFE F2dc|
BGFD EC~C2|DGG^F GABc|defd cAGF|1 DGG^F G2:|2 DGG^F G3D|]
G2Bd gdBG|F2Ac fcAF|G2Bd gdBd|~c3d cA^FA|
G2Bd gdBG|F2Ac fcAF|GABd cAGF|1 DGG^F GDE^F:|2 DGG^F G2|]
